images/dist/icons/compass.svg

<svg width="24" height="24" viewBox="0 0 24 24" fill="none" xmlns="http://www.w3.org/2000/svg">
<path d="M17.0205 6.929C16.7476 6.65765 16.3366 6.58068 15.984 6.73466L5.57775 11.2815C5.22933 11.4338 5.00733 11.7815 5.01586 12.1616C5.02435 12.5418 5.26168 12.8791 5.61657 13.0156L9.49327 14.5067L10.966 18.3358C11.1971 18.9361 11.7048 18.9844 11.8602 18.9844C11.8612 18.9844 11.8622 18.9844 11.8633 18.9844C12.2363 18.9828 12.573 18.7602 12.7205 18.4176L17.2205 7.96443C17.3726 7.61094 17.2933 7.20041 17.0205 6.929ZM11.9081 15.5625C11.622 14.8185 11.3173 14.0261 11.0937 13.4447C10.9985 13.1971 10.8028 13.0014 10.5552 12.9062L8.421 12.0853L14.5597 9.40316L11.9081 15.5625Z" fill="#EC4B40"/>
<path d="M20.4853 3.51469C18.2188 1.24823 15.2053 0 12 0C8.79469 0 5.78123 1.24823 3.51469 3.51469C1.24823 5.78123 0 8.79469 0 12C0 15.2053 1.24823 18.2188 3.51469 20.4853C5.78123 22.7518 8.79469 24 12 24C14.1944 24 16.3414 23.402 18.2092 22.2706C18.652 22.0023 18.7935 21.4259 18.5253 20.983C18.257 20.5401 17.6805 20.3986 17.2377 20.6669C15.663 21.6208 13.8518 22.125 12 22.125C6.41705 22.125 1.875 17.583 1.875 12C1.875 6.41705 6.41705 1.875 12 1.875C17.583 1.875 22.125 6.41705 22.125 12C22.125 13.9964 21.5313 15.9396 20.4082 17.6196C20.1204 18.05 20.236 18.6322 20.6664 18.92C21.0969 19.2077 21.6791 19.0921 21.9668 18.6617C23.297 16.6722 24 14.3686 24 12C24 8.79469 22.7518 5.78123 20.4853 3.51469Z" fill="#EC4B40"/>
</svg>

<svg width="24" height="24" fill="none" xmlns="http://www.w3.org/2000/svg"><path d="M17.02 6.929a.938.938 0 00-1.036-.194L5.578 11.28a.938.938 0 00.039 1.735l3.876 1.49 1.473 3.83c.231.6.739.648.894.648h.003a.938.938 0 00.857-.566l4.5-10.454a.938.938 0 00-.2-1.035zm-5.112 8.633l-.814-2.117a.937.937 0 00-.539-.539l-2.134-.82 6.139-2.683-2.652 6.16z" fill="#EC4B40"/><path d="M20.485 3.515A11.922 11.922 0 0012 0a11.922 11.922 0 00-8.485 3.515A11.922 11.922 0 000 12c0 3.205 1.248 6.219 3.515 8.485A11.922 11.922 0 0012 24c2.194 0 4.341-.598 6.21-1.73a.938.938 0 00-.972-1.603A10.106 10.106 0 0112 22.125C6.417 22.125 1.875 17.583 1.875 12S6.417 1.875 12 1.875 22.125 6.417 22.125 12c0 1.996-.594 3.94-1.717 5.62a.937.937 0 101.559 1.042A11.952 11.952 0 0024 12c0-3.205-1.248-6.219-3.515-8.485z" fill="#EC4B40"/></svg>
